svgs/thin/person-drowning.svg

<svg xmlns="http://www.w3.org/2000/svg" viewBox="0 0 576 512"><!--! Font Awesome Pro 6.4.2 by @fontawesome - https://fontawesome.com License - https://fontawesome.com/license (Commercial License) Copyright 2023 Fonticons, Inc. --><path d="M197.3 241.8c4.5 3.5 6.7 9.2 5.9 14.8L185 384.1c-5.1-.5-10.4-1.5-15.7-2.9l18.1-126.9C140.8 217.5 112 160.7 112 98.7V72c0-22.1 17.9-40 40-40s40 17.9 40 40V98.7c0 52.1 34 98 83.8 113.2c40.2 12.2 83 13.6 123.9 3.8l95-22.6c21.5-5.1 43.1 8.2 48.2 29.6s-8.2 43.1-29.6 48.2l-95 22.6c-12.9 3.1-25.8 5.3-38.9 6.7l-14.9 81.8c-5.1-1.2-10.3-2.8-15.4-4.9l14.5-79.8c1.3-7 7-12.3 14-13c12.4-1.4 24.7-3.5 36.9-6.4l95-22.6c12.9-3.1 20.9-16 17.8-28.9s-16-20.9-28.9-17.8l-95 22.6c-43.7 10.4-89.3 9-132.3-4.1C214.6 210 176 157.8 176 98.7V72c0-13.3-10.7-24-24-24s-24 10.7-24 24V98.7c0 57 26.4 109.2 69.3 143zM320 176a48 48 0 1 0 0-96 48 48 0 1 0 0 96zm-64-48a64 64 0 1 1 128 0 64 64 0 1 1 -128 0zm38.6 275.4c8 11.2 17.5 21.4 27.6 30.7C339.5 449.8 361.5 464 384 464s44.6-14.2 61.8-29.9c10.1-9.2 19.7-19.5 27.6-30.7c1.5-2.1 3.9-3.4 6.6-3.4s5.1 1.3 6.6 3.4c7.3 10.3 15.9 19.6 25 28.3c15.7 14.8 36.1 29.2 57.4 31.9c4.4 .6 7.5 4.6 6.9 8.9s-4.6 7.5-8.9 6.9c-26.5-3.3-50-20.7-66.4-36.1c-8.8-8.3-15.9-16.4-20.6-22.2c-5.2 6.4-13.3 15.6-23.4 24.8c-18 16.3-43.9 34.1-72.6 34.1s-54.6-17.8-72.6-34.1c-10.2-9.2-18.2-18.4-23.4-24.8l0 0 0 0c-5.2 6.4-13.3 15.6-23.4 24.8c-18 16.3-43.9 34.1-72.6 34.1s-54.6-17.8-72.6-34.1c-10.2-9.2-18.2-18.4-23.4-24.8c-4.7 5.8-11.8 13.9-20.6 22.2C59 458.7 35.5 476.1 9 479.4c-4.4 .6-8.4-2.6-8.9-6.9s2.6-8.4 6.9-8.9c21.3-2.7 41.7-17.1 57.4-31.9c9.1-8.6 17.7-18 25-28.3c1.5-2.1 3.9-3.4 6.6-3.4s5.1 1.3 6.6 3.4c7.9 11.2 17.5 21.5 27.6 30.7C147.4 449.8 169.5 464 192 464s44.6-14.2 61.8-29.9c10.1-9.2 19.6-19.5 27.6-30.7c3-4.3 10.2-4.3 13.2 0z"/></svg>

<svg xmlns="http://www.w3.org/2000/svg" viewBox="0 0 576 512"><!--! Font Awesome Pro 6.1.1 by @fontawesome - https://fontawesome.com License - https://fontawesome.com/license (Commercial License) Copyright 2022 Fonticons, Inc. --><path d="M197.3 241.8C201.7 245.3 203.1 250.9 203.2 256.6L184.1 384.1C179.8 383.6 174.5 382.6 169.2 381.2L187.3 254.3C140.8 217.5 112 160.7 112 98.72V72C112 49.91 129.9 32 152 32C174.1 32 192 49.91 192 72V98.72C192 150.8 226 196.7 275.8 211.9C316.1 224.1 358.8 225.4 399.7 215.7L494.7 193.1C516.2 187.1 537.8 201.2 542.9 222.7C548 244.2 534.8 265.8 513.3 270.9L418.3 293.5C405.4 296.6 392.4 298.8 379.4 300.3L364.5 382.1C359.4 380.9 354.2 379.3 349.1 377.2L363.6 297.4C364.9 290.4 370.6 285.1 377.6 284.4C390 282.1 402.4 280.9 414.6 277.1L509.6 255.3C522.5 252.3 530.4 239.3 527.3 226.4C524.3 213.5 511.3 205.6 498.4 208.7L403.5 231.3C359.8 241.7 314.1 240.3 271.2 227.2C214.6 209.1 176 157.8 176 98.72V71.1C176 58.74 165.3 47.1 152 47.1C138.7 47.1 128 58.74 128 71.1V98.72C128 155.7 154.4 207.9 197.3 241.8H197.3zM384 127.1C384 163.3 355.3 191.1 320 191.1C284.7 191.1 256 163.3 256 127.1C256 92.65 284.7 63.1 320 63.1C355.3 63.1 384 92.65 384 127.1zM320 175.1C346.5 175.1 368 154.5 368 127.1C368 101.5 346.5 79.1 320 79.1C293.5 79.1 272 101.5 272 127.1C272 154.5 293.5 175.1 320 175.1zM294.6 403.4C302.6 414.6 312.1 424.9 322.2 434.1C339.5 449.8 361.5 464 384 464C406.5 464 428.6 449.8 445.8 434.1C455.1 424.9 465.5 414.6 473.5 403.4C474.1 401.3 477.4 400 480 400C482.6 400 485.1 401.3 486.6 403.4C493.9 413.7 502.5 423 511.6 431.7C527.3 446.5 547.7 460.9 569 463.6C573.4 464.1 576.5 468.1 575.9 472.5C575.4 476.9 571.4 479.1 567 479.4C540.5 476.1 516.1 458.7 500.6 443.3C491.8 434.1 484.7 426.9 480 421.1C474.8 427.5 466.8 436.7 456.6 445.9C438.7 462.2 412.7 480 384 480C355.3 480 329.4 462.2 311.4 445.9C301.3 436.7 293.2 427.5 288 421.1L288 421.1L287.1 421.1C282.8 427.5 274.7 436.7 264.6 445.9C246.6 462.2 220.7 480 191.1 480C163.3 480 137.4 462.2 119.4 445.9C109.2 436.7 101.2 427.5 95.98 421.1C91.29 426.9 84.23 434.1 75.4 443.3C59.03 458.7 35.48 476.1 9.001 479.4C4.617 479.1 .616 476.9 .0637 472.5C-.4887 468.1 2.617 464.1 7.001 463.6C28.3 460.9 48.74 446.5 64.42 431.7C73.56 423 82.16 413.7 89.43 403.4C90.93 401.3 93.37 400 95.98 400C98.59 400 101 401.3 102.5 403.4C110.5 414.6 120 424.9 130.2 434.1C147.4 449.8 169.5 464 191.1 464C214.5 464 236.6 449.8 253.8 434.1C263.9 424.9 273.4 414.6 281.4 403.4C284.4 399.1 291.6 399.1 294.6 403.4H294.6z"/></svg>
